X: 11932
T: Empty Pod, The
R: reel
M: 4/4
K: Edorian
|:B2EB deed|c2Ac deed|B2EB deed|g2fB-Bgfd|
~B2EB deed|c2Ac deed|B2EB deed|dedB-BcAE:|
|:B2E~B2E~B2|GBB/B/G dBe2|~B2G~B2G~B2|ABB/B/A eBfd|
~B2EB2E~B2|GBB/B/G dBe2|1 ~B2G~B2G~B2|ABB/B/A eBa2:|2 B2GA-A4-|A6 z2||
|:gedB BEGB|AEGA ageB|gedB BEGA|b2ag ae2z|
gedB BEGB|AEGA ageB|gedG GEge|dGGE gez2:|

